src/standard/diagrams/graph-steady-down.svg

<svg xmlns="http://www.w3.org/2000/svg" viewBox="0 0 36 36">
  <path d="m32.13 25.15-28-5.86a.62.62 0 0 0-.26 1.22l28 5.86a.62.62 0 0 0 .26-1.22ZM5.05 17.44a.62.62 0 0 0 .62-.62V5.62h24.75v16.79a.63.63 0 0 0 1.25 0V5a.62.62 0 0 0-.62-.62h-26a.63.63 0 0 0-.63.62v11.82a.63.63 0 0 0 .63.62Z"/>
  <path d="M17.38 8v10a.62.62 0 0 0 1.24 0V8a.62.62 0 0 0-1.24 0Zm-7 0v8a.62.62 0 0 0 1.24 0V8a.62.62 0 0 0-1.24 0Zm14 0v12a.62.62 0 0 0 1.24 0V8a.62.62 0 0 0-1.24 0Zm6.67 20a.63.63 0 0 0-.63.63v1.74H5.67v-6.46a.63.63 0 0 0-.62-.63.63.63 0 0 0-.63.63V31a.63.63 0 0 0 .63.62h26a.62.62 0 0 0 .62-.62v-2.36a.63.63 0 0 0-.62-.64Z"/>
</svg>

<svg id="e6a0619a-7fe1-4f2f-a5cc-a14bc4eeb721" data-name="Icon" xmlns="http://www.w3.org/2000/svg" viewBox="0 0 36 36">
  <g>
    <path d="M32.13,25.15l-28-5.86a.62.62,0,0,0-.26,1.22l28,5.86A.62.62,0,0,0,32.13,25.15Z"/>
    <path d="M5.05,17.44a.62.62,0,0,0,.62-.62V5.62H30.42V22.41a.63.63,0,0,0,1.25,0V5a.62.62,0,0,0-.62-.62h-26A.63.63,0,0,0,4.42,5V16.82A.63.63,0,0,0,5.05,17.44Z"/>
    <path d="M17.38,8V18a.62.62,0,0,0,1.24,0V8A.62.62,0,0,0,17.38,8Z"/>
    <path d="M10.38,8v8a.62.62,0,0,0,1.24,0V8A.62.62,0,0,0,10.38,8Z"/>
    <path d="M24.38,8V20a.62.62,0,0,0,1.24,0V8A.62.62,0,0,0,24.38,8Z"/>
    <path d="M31.05,28a.63.63,0,0,0-.63.63v1.74H5.67V23.91a.63.63,0,0,0-.62-.63.63.63,0,0,0-.63.63V31a.63.63,0,0,0,.63.62h26a.62.62,0,0,0,.62-.62V28.64A.63.63,0,0,0,31.05,28Z"/>
  </g>
</svg>
